assets/icons/calendar-2.svg

<svg width="20" height="20" viewBox="0 0 20 20" fill="none" xmlns="http://www.w3.org/2000/svg">
<path d="M1.66797 9.99967C1.66797 6.85717 1.66797 5.28551 2.64464 4.30967C3.6213 3.33384 5.19214 3.33301 8.33464 3.33301H11.668C14.8105 3.33301 16.3821 3.33301 17.358 4.30967C18.3338 5.28634 18.3346 6.85717 18.3346 9.99967V11.6663C18.3346 14.8088 18.3346 16.3805 17.358 17.3563C16.3813 18.3322 14.8105 18.333 11.668 18.333H8.33464C5.19214 18.333 3.62047 18.333 2.64464 17.3563C1.6688 16.3797 1.66797 14.8088 1.66797 11.6663V9.99967Z" stroke="currentColor" stroke-width="1.25"/>
<path d="M5.83496 3.33301V2.08301M14.1683 3.33301V2.08301M2.08496 7.49967H17.9183" stroke="currentColor" stroke-width="1.25" stroke-linecap="round"/>
<path d="M15.001 14.1667C15.001 14.3877 14.9132 14.5996 14.7569 14.7559C14.6006 14.9122 14.3887 15 14.1676 15C13.9466 15 13.7347 14.9122 13.5784 14.7559C13.4221 14.5996 13.3343 14.3877 13.3343 14.1667C13.3343 13.9457 13.4221 13.7337 13.5784 13.5774C13.7347 13.4211 13.9466 13.3333 14.1676 13.3333C14.3887 13.3333 14.6006 13.4211 14.7569 13.5774C14.9132 13.7337 15.001 13.9457 15.001 14.1667ZM15.001 10.8333C15.001 11.0543 14.9132 11.2663 14.7569 11.4226C14.6006 11.5789 14.3887 11.6667 14.1676 11.6667C13.9466 11.6667 13.7347 11.5789 13.5784 11.4226C13.4221 11.2663 13.3343 11.0543 13.3343 10.8333C13.3343 10.6123 13.4221 10.4004 13.5784 10.2441C13.7347 10.0878 13.9466 10 14.1676 10C14.3887 10 14.6006 10.0878 14.7569 10.2441C14.9132 10.4004 15.001 10.6123 15.001 10.8333ZM10.8343 14.1667C10.8343 14.3877 10.7465 14.5996 10.5902 14.7559C10.434 14.9122 10.222 15 10.001 15C9.77996 15 9.568 14.9122 9.41172 14.7559C9.25544 14.5996 9.16764 14.3877 9.16764 14.1667C9.16764 13.9457 9.25544 13.7337 9.41172 13.5774C9.568 13.4211 9.77996 13.3333 10.001 13.3333C10.222 13.3333 10.434 13.4211 10.5902 13.5774C10.7465 13.7337 10.8343 13.9457 10.8343 14.1667ZM10.8343 10.8333C10.8343 11.0543 10.7465 11.2663 10.5902 11.4226C10.434 11.5789 10.222 11.6667 10.001 11.6667C9.77996 11.6667 9.568 11.5789 9.41172 11.4226C9.25544 11.2663 9.16764 11.0543 9.16764 10.8333C9.16764 10.6123 9.25544 10.4004 9.41172 10.2441C9.568 10.0878 9.77996 10 10.001 10C10.222 10 10.434 10.0878 10.5902 10.2441C10.7465 10.4004 10.8343 10.6123 10.8343 10.8333ZM6.66764 14.1667C6.66764 14.3877 6.57985 14.5996 6.42357 14.7559C6.26728 14.9122 6.05532 15 5.83431 15C5.6133 15 5.40133 14.9122 5.24505 14.7559C5.08877 14.5996 5.00098 14.3877 5.00098 14.1667C5.00098 13.9457 5.08877 13.7337 5.24505 13.5774C5.40133 13.4211 5.6133 13.3333 5.83431 13.3333C6.05532 13.3333 6.26728 13.4211 6.42357 13.5774C6.57985 13.7337 6.66764 13.9457 6.66764 14.1667ZM6.66764 10.8333C6.66764 11.0543 6.57985 11.2663 6.42357 11.4226C6.26728 11.5789 6.05532 11.6667 5.83431 11.6667C5.6133 11.6667 5.40133 11.5789 5.24505 11.4226C5.08877 11.2663 5.00098 11.0543 5.00098 10.8333C5.00098 10.6123 5.08877 10.4004 5.24505 10.2441C5.40133 10.0878 5.6133 10 5.83431 10C6.05532 10 6.26728 10.0878 6.42357 10.2441C6.57985 10.4004 6.66764 10.6123 6.66764 10.8333Z" fill="currentColor"/>
</svg>

<svg xmlns="http://www.w3.org/2000/svg" width="20" height="20" fill="none" viewBox="0 0 20 20"><path stroke="currentColor" stroke-width="1.25" d="M1.668 10c0-3.143 0-4.714.977-5.69.976-.976 2.547-.977 5.69-.977h3.333c3.143 0 4.714 0 5.69.977.976.976.977 2.547.977 5.69v1.666c0 3.143 0 4.715-.977 5.69s-2.548.977-5.69.977H8.335c-3.143 0-4.715 0-5.69-.977-.976-.976-.977-2.547-.977-5.69z"/><path stroke="currentColor" stroke-linecap="round" stroke-width="1.25" d="M5.835 3.333v-1.25m8.333 1.25v-1.25M2.085 7.5h15.833"/><path fill="currentColor" d="M15.001 14.167a.833.833 0 1 1-1.666 0 .833.833 0 0 1 1.666 0m0-3.334a.833.833 0 1 1-1.667 0 .833.833 0 0 1 1.667 0m-4.167 3.334a.833.833 0 1 1-1.666 0 .833.833 0 0 1 1.666 0m0-3.334a.833.833 0 1 1-1.667 0 .833.833 0 0 1 1.667 0m-4.166 3.334a.833.833 0 1 1-1.667 0 .833.833 0 0 1 1.667 0m0-3.334a.833.833 0 1 1-1.667 0 .833.833 0 0 1 1.667 0"/></svg>
